Sources/FrostedUI/Resources/Icons.xcassets/couponExpired12.imageset/coupon-expired-12.svg

<svg width="12" height="12" viewBox="0 0 12 12" fill="none" xmlns="http://www.w3.org/2000/svg" data-fui-icon="true">
  <path
    d="M3.99805 0C4.44671 0.000157689 4.78777 0.2555 4.97852 0.552734L5.05078 0.681641L5.12598 0.813477C5.31932 1.10492 5.64206 1.28906 6 1.28906C6.40915 1.28906 6.77275 1.0481 6.94922 0.681641L7.02148 0.552734C7.21223 0.2555 7.55329 0.000157669 8.00195 0H9.5L9.65332 0.0078125C10.4097 0.0846099 11 0.723336 11 1.5V10.5C11 11.2767 10.4097 11.9154 9.65332 11.9922L9.5 12H8.00195C7.48938 11.9998 7.11714 11.6667 6.94922 11.3184C6.77275 10.9519 6.40914 10.7109 6 10.7109C5.59086 10.7109 5.22725 10.9519 5.05078 11.3184C4.88286 11.6667 4.51062 11.9998 3.99805 12H2.5C1.67157 12 1 11.3284 1 10.5V1.5C1 0.671573 1.67157 0 2.5 0H3.99805ZM2.5 10.5H3.78809C4.22842 9.73425 5.04997 9.21094 6 9.21094C6.95003 9.21094 7.77158 9.73425 8.21191 10.5H9.5V1.5H8.21191C7.77158 2.26575 6.95003 2.78906 6 2.78906C5.04997 2.78906 4.22842 2.26575 3.78809 1.5H2.5V10.5ZM7.34473 3.59473C7.63762 3.30183 8.11238 3.30183 8.40527 3.59473C8.69817 3.88762 8.69817 4.36238 8.40527 4.65527L7.06055 6L8.40527 7.34473C8.69817 7.63762 8.69817 8.11238 8.40527 8.40527C8.11238 8.69817 7.63762 8.69817 7.34473 8.40527L6 7.06055L4.65527 8.40527C4.36238 8.69817 3.88762 8.69817 3.59473 8.40527C3.30183 8.11238 3.30183 7.63762 3.59473 7.34473L4.93945 6L3.59473 4.65527C3.30183 4.36238 3.30183 3.88762 3.59473 3.59473C3.88762 3.30183 4.36238 3.30183 4.65527 3.59473L6 4.93945L7.34473 3.59473Z"
    fill="currentColor"
  />
</svg>

<svg xmlns="http://www.w3.org/2000/svg" width="12" height="12" fill="none" data-fui-icon="true" viewBox="0 0 12 12"><path fill="currentColor" d="M3.998 0c.449 0 .79.256.98.553l.073.129.075.131c.193.292.516.476.874.476.41 0 .773-.24.95-.607l.071-.13C7.212.256 7.553 0 8.002 0H9.5l.153.008A1.5 1.5 0 0 1 11 1.5v9a1.5 1.5 0 0 1-1.347 1.492L9.5 12H8.002c-.513 0-.885-.333-1.053-.682A1.06 1.06 0 0 0 6 10.711c-.41 0-.773.24-.95.607-.167.349-.54.682-1.052.682H2.5A1.5 1.5 0 0 1 1 10.5v-9A1.5 1.5 0 0 1 2.5 0zM2.5 10.5h1.288A2.55 2.55 0 0 1 6 9.21c.95 0 1.772.524 2.212 1.29H9.5v-9H8.212A2.55 2.55 0 0 1 6 2.79 2.55 2.55 0 0 1 3.788 1.5H2.5zm4.845-6.905a.75.75 0 1 1 1.06 1.06L7.061 6l1.344 1.345a.75.75 0 1 1-1.06 1.06L6 7.061 4.655 8.405a.75.75 0 1 1-1.06-1.06L4.939 6 3.595 4.655a.75.75 0 1 1 1.06-1.06L6 4.939z"/></svg>
